X: 20683
T: The Battle begins
%R: fanfare, march
B: James Oswald "The Caledonian Pocket Companion" v.2 p.68 #3
Z: 2019 John Chambers <jc:trillian.mit.edu>
M: 3/4
L: 1/16
K: Dmix
|:\
d2d2d2d2 f4 | d2d2d2d2 e4 | d2d2d2d2 f4 | B2B2B2B2 d4 ::\
d2B2B2A2 F4 | d2B2B2A2 E4 | d2B2B2A2 F4 | d2B2B2A2 D4 :|
|:\
DDDD DDDD f4 | DDDD DDDD E4 | DDDD DDDD f4 | BBBB BBBB d4 :|
|:\
dAAA AAAA F4 | dAAA AAAA E4 | dAAA AAAA F4 | BAAA AAAA D4 :|


